src/assets/images/icons/icon-vb.svg

<svg fill="none" height="60" viewBox="0 0 60 60" width="60" xmlns="http://www.w3.org/2000/svg"><circle cx="30" cy="30" fill="#7b509f" r="30"/><path clip-rule="evenodd" d="m30.6698 30.5906s.2669.0238.41-.1543l.28-.3519c.135-.175.4612-.2862.7806-.1087.4225.2387.9687.6137 1.3431.9631.2063.1737.2544.43.1138.7006l-.0013.0056c-.145.255-.3381.4944-.5825.7175l-.0056.0037c-.275.2294-.5912.3625-.9294.2525l-.0062-.0087c-.6075-.1719-2.065-.915-2.9937-1.6556-1.5194-1.1987-2.5993-3.1762-2.8981-4.2362l-.0094-.0062c-.11-.3394.0244-.6557.2525-.93l.0044-.005c.2231-.2444.4619-.4382.7175-.5825l.0056-.0013c.27-.1406.5263-.0931.7006.1138.2294.2368.66.8068.9625 1.3431.1775.3187.0663.6456-.1081.78l-.3525.28c-.1775.1437-.1544.4106-.1544.4106s.5213 1.9724 2.4706 2.4699zm3.0668-1.6349c-.1043 0-.1893-.0844-.19-.1888-.0087-1.1437-.3525-2.0549-1.0212-2.7074-.67-.6532-1.5168-.9881-2.5168-.995-.105-.0006-.1894-.0863-.1882-.1913.0007-.1043.085-.1881.1894-.1881h.0013c1.1012.0075 2.0362.3788 2.7793 1.1025.7437.7262 1.1262 1.7281 1.1356 2.9768.0006.1044-.0831.19-.1881.1913zm-.9968-.39h-.0044c-.105-.0025-.1881-.0894-.1856-.1938.015-.6487-.1706-1.1737-.5663-1.6056-.3937-.4306-.9343-.6656-1.6531-.7181-.1043-.0081-.1831-.0987-.1756-.2031.0081-.1044.0988-.1831.2031-.1756.8088.0593 1.45.3425 1.9056.8406.4582.5.6825 1.1293.6657 1.87-.0025.1031-.0869.1856-.1894.1856zm-.9738-.3263c-.1006 0-.1843-.0787-.1893-.1806-.0319-.6437-.3356-.9587-.9544-.9925-.105-.0056-.185-.095-.1794-.1993.0057-.105.0944-.185.1994-.1794.8175.0437 1.2712.5118 1.3131 1.3525.0056.1043-.075.1937-.18.1987zm4.2606 2.1681c-.3781 3.0481-2.6075 3.2406-3.0187 3.3725-.175.0562-1.8012.4606-3.8449.3275 0 0-1.5238 1.8374-1.9994 2.3155-.0744.0744-.1612.1044-.22.0907-.0819-.02-.1044-.1175-.1031-.2588l.0125-2.5099v-.0007c-2.9762-.8268-2.8031-3.9343-2.7693-5.5611.0337-1.6269.3393-2.96 1.2474-3.8562 1.6313-1.4775 4.9918-1.2569 4.9918-1.2569 2.8381.0125 4.1981.8669 4.5137 1.1531 1.0469.8963 1.58 3.0419 1.19 6.1843zm-.4075-6.9455c-.3731-.3425-1.8793-1.4362-5.2343-1.4512 0 0-3.9562-.2388-5.8849 1.5312-1.0737 1.0737-1.4512 2.6443-1.4912 4.5924-.0394 1.9487-.0913 5.5987 3.4274 6.5887l.0038.0012-.0025 1.51s-.0219.6119.3806.7369c.4869.1506.7725-.3138 1.2381-.815.255-.275.6069-.6788.8731-.9875 2.4069.2012 4.2574-.2606 4.4681-.3288.4856-.1581 3.2355-.5099 3.683-4.1605.4613-3.7637-.2237-6.1437-1.4612-7.2174z" fill="#fff" fill-rule="evenodd"/></svg>

<svg width="60" height="60" viewBox="0 0 60 60" fill="none" xmlns="http://www.w3.org/2000/svg">
<circle cx="30" cy="30" r="30" fill="#7B509F"/>
<path fill-rule="evenodd" clip-rule="evenodd" d="M30.6698 30.5906C30.6698 30.5906 30.9367 30.6144 31.0798 30.4363L31.3598 30.0844C31.4948 29.9094 31.821 29.7982 32.1404 29.9757C32.5629 30.2144 33.1091 30.5894 33.4835 30.9388C33.6898 31.1125 33.7379 31.3688 33.5973 31.6394L33.596 31.645C33.451 31.9 33.2579 32.1394 33.0135 32.3625L33.0079 32.3662C32.7329 32.5956 32.4167 32.7287 32.0785 32.6187L32.0723 32.61C31.4648 32.4381 30.0073 31.695 29.0786 30.9544C27.5592 29.7557 26.4793 27.7782 26.1805 26.7182L26.1711 26.712C26.0611 26.3726 26.1955 26.0563 26.4236 25.782L26.428 25.777C26.6511 25.5326 26.8899 25.3388 27.1455 25.1945L27.1511 25.1932C27.4211 25.0526 27.6774 25.1001 27.8517 25.307C28.0811 25.5438 28.5117 26.1138 28.8142 26.6501C28.9917 26.9688 28.8805 27.2957 28.7061 27.4301L28.3536 27.7101C28.1761 27.8538 28.1992 28.1207 28.1992 28.1207C28.1992 28.1207 28.7205 30.0931 30.6698 30.5906V30.5906ZM33.7366 28.9557C33.6323 28.9557 33.5473 28.8713 33.5466 28.7669C33.5379 27.6232 33.1941 26.712 32.5254 26.0595C31.8554 25.4063 31.0086 25.0714 30.0086 25.0645C29.9036 25.0639 29.8192 24.9782 29.8204 24.8732C29.8211 24.7689 29.9054 24.6851 30.0098 24.6851H30.0111C31.1123 24.6926 32.0473 25.0639 32.7904 25.7876C33.5341 26.5138 33.9166 27.5157 33.926 28.7644C33.9266 28.8688 33.8429 28.9544 33.7379 28.9557H33.7366V28.9557ZM32.7398 28.5657H32.7354C32.6304 28.5632 32.5473 28.4763 32.5498 28.3719C32.5648 27.7232 32.3792 27.1982 31.9835 26.7663C31.5898 26.3357 31.0492 26.1007 30.3304 26.0482C30.2261 26.0401 30.1473 25.9495 30.1548 25.8451C30.1629 25.7407 30.2536 25.662 30.3579 25.6695C31.1667 25.7288 31.8079 26.012 32.2635 26.5101C32.7217 27.0101 32.946 27.6394 32.9292 28.3801C32.9267 28.4832 32.8423 28.5657 32.7398 28.5657V28.5657ZM31.766 28.2394C31.6654 28.2394 31.5817 28.1607 31.5767 28.0588C31.5448 27.4151 31.2411 27.1001 30.6223 27.0663C30.5173 27.0607 30.4373 26.9713 30.4429 26.867C30.4486 26.762 30.5373 26.682 30.6423 26.6876C31.4598 26.7313 31.9135 27.1994 31.9554 28.0401C31.961 28.1444 31.8804 28.2338 31.7754 28.2388L31.766 28.2394V28.2394ZM36.0266 30.4075C35.6485 33.4556 33.4191 33.6481 33.0079 33.78C32.8329 33.8362 31.2067 34.2406 29.163 34.1075C29.163 34.1075 27.6392 35.9449 27.1636 36.423C27.0892 36.4974 27.0024 36.5274 26.9436 36.5137C26.8617 36.4937 26.8392 36.3962 26.8405 36.2549L26.853 33.745V33.7443C23.8768 32.9175 24.0499 29.81 24.0837 28.1832C24.1174 26.5563 24.423 25.2232 25.3311 24.327C26.9624 22.8495 30.3229 23.0701 30.3229 23.0701C33.161 23.0826 34.521 23.937 34.8366 24.2232C35.8835 25.1195 36.4166 27.2651 36.0266 30.4075V30.4075ZM35.6191 23.462C35.246 23.1195 33.7398 22.0258 30.3848 22.0108C30.3848 22.0108 26.4286 21.772 24.4999 23.542C23.4262 24.6157 23.0487 26.1863 23.0087 28.1344C22.9693 30.0831 22.9174 33.7331 26.4361 34.7231L26.4399 34.7243L26.4374 36.2343C26.4374 36.2343 26.4155 36.8462 26.818 36.9712C27.3049 37.1218 27.5905 36.6574 28.0561 36.1562C28.3111 35.8812 28.663 35.4774 28.9292 35.1687C31.3361 35.3699 33.1866 34.9081 33.3973 34.8399C33.8829 34.6818 36.6328 34.33 37.0803 30.6794C37.5416 26.9157 36.8566 24.5357 35.6191 23.462V23.462Z" fill="white"/>
</svg>
